docs/fundamentales/bbin_5.svg

<?xml version="1.0" encoding="UTF-8" standalone="no"?>
<svg
   xmlns:dc="http://purl.org/dc/elements/1.1/"
   xmlns:cc="http://creativecommons.org/ns#"
   xmlns:rdf="http://www.w3.org/1999/02/22-rdf-syntax-ns#"
   xmlns:svg="http://www.w3.org/2000/svg"
   xmlns="http://www.w3.org/2000/svg"
   xmlns:sodipodi="http://sodipodi.sourceforge.net/DTD/sodipodi-0.dtd"
   xmlns:inkscape="http://www.inkscape.org/namespaces/inkscape"
   sodipodi:docname="bbin_5.svg"
   inkscape:version="1.0 (4035a4fb49, 2020-05-01)"
   id="svg8"
   version="1.1"
   viewBox="0 0 127.38717 22.439771"
   height="22.43977mm"
   width="127.38717mm">
  <defs
     id="defs2">
    <marker
       inkscape:stockid="Arrow1Mend"
       orient="-90"
       refY="0"
       refX="0"
       id="Arrow1Mend-1-8"
       style="overflow:visible"
       inkscape:isstock="true">
      <path
         id="path862-1-0"
         d="M 0,0 5,-5 -12.5,0 5,5 Z"
         style="fill:#000000;fill-opacity:1;fill-rule:evenodd;stroke:#000000;stroke-width:1pt;stroke-opacity:1"
         transform="matrix(-0.4,0,0,-0.4,-4,0)" />
    </marker>
    <marker
       inkscape:isstock="true"
       style="overflow:visible"
       id="Arrow1Mend-1-8-2"
       refX="0"
       refY="0"
       orient="auto"
       inkscape:stockid="Arrow1Mend">
      <path
         transform="matrix(-0.4,0,0,-0.4,-4,0)"
         style="fill:#000000;fill-opacity:1;fill-rule:evenodd;stroke:#000000;stroke-width:1pt;stroke-opacity:1"
         d="M 0,0 5,-5 -12.5,0 5,5 Z"
         id="path862-1-0-5" />
    </marker>
    <marker
       inkscape:stockid="Arrow1Mend"
       orient="auto"
       refY="0"
       refX="0"
       id="Arrow1Mend-1-8-2-1"
       style="overflow:visible"
       inkscape:isstock="true">
      <path
         id="path862-1-0-5-7"
         d="M 0,0 5,-5 -12.5,0 5,5 Z"
         style="fill:#000000;fill-opacity:1;fill-rule:evenodd;stroke:#000000;stroke-width:1pt;stroke-opacity:1"
         transform="matrix(-0.4,0,0,-0.4,-4,0)" />
    </marker>
    <marker
       inkscape:isstock="true"
       style="overflow:visible"
       id="Arrow1Mend-1-8-2-1-9"
       refX="0"
       refY="0"
       orient="auto"
       inkscape:stockid="Arrow1Mend">
      <path
         transform="matrix(-0.4,0,0,-0.4,-4,0)"
         style="fill:#000000;fill-opacity:1;fill-rule:evenodd;stroke:#000000;stroke-width:1pt;stroke-opacity:1"
         d="M 0,0 5,-5 -12.5,0 5,5 Z"
         id="path862-1-0-5-7-1" />
    </marker>
    <marker
       inkscape:stockid="Arrow1Mend"
       orient="auto"
       refY="0"
       refX="0"
       id="Arrow1Mend-1-8-2-1-9-6"
       style="overflow:visible"
       inkscape:isstock="true">
      <path
         id="path862-1-0-5-7-1-8"
         d="M 0,0 5,-5 -12.5,0 5,5 Z"
         style="fill:#000000;fill-opacity:1;fill-rule:evenodd;stroke:#000000;stroke-width:1pt;stroke-opacity:1"
         transform="matrix(-0.4,0,0,-0.4,-4,0)" />
    </marker>
  </defs>
  <sodipodi:namedview
     inkscape:window-maximized="0"
     inkscape:window-y="139"
     inkscape:window-x="519"
     inkscape:window-height="1040"
     inkscape:window-width="1375"
     showgrid="false"
     inkscape:document-rotation="0"
     inkscape:current-layer="layer1"
     inkscape:document-units="mm"
     inkscape:cy="116.48579"
     inkscape:cx="112.37413"
     inkscape:zoom="0.98994949"
     inkscape:pageshadow="2"
     inkscape:pageopacity="0.0"
     borderopacity="1.0"
     bordercolor="#666666"
     pagecolor="#ffffff"
     id="base" />
  <metadata
     id="metadata5">
    <rdf:RDF>
      <cc:Work
         rdf:about="">
        <dc:format>image/svg+xml</dc:format>
        <dc:type
           rdf:resource="http://purl.org/dc/dcmitype/StillImage" />
        <dc:title />
      </cc:Work>
    </rdf:RDF>
  </metadata>
  <g
     transform="translate(-204.13814,-167.5096)"
     id="layer1"
     inkscape:groupmode="layer"
     inkscape:label="Layer 1">
    <text
       xml:space="preserve"
       style="font-style:normal;font-variant:normal;font-weight:normal;font-stretch:normal;font-size:10.5833px;line-height:1.25;font-family:'CMU Typewriter Text';-inkscape-font-specification:'CMU Typewriter Text';stroke-width:0.264583"
       x="203.84358"
       y="176.38867"
       id="text835-7-7-4-7"><tspan
         sodipodi:role="line"
         x="203.84358"
         y="176.38867"
         style="font-style:normal;font-variant:normal;font-weight:normal;font-stretch:normal;font-family:'CMU Typewriter Text';-inkscape-font-specification:'CMU Typewriter Text';stroke-width:0.264583"
         id="tspan1827-5-3-9-5"><tspan
           style="fill:#ff0000;stroke-width:0.264583"
           id="tspan837-6-5-5-9">FFFFFFFFFFFFFFF</tspan><tspan
           style="fill:#008000;stroke-width:0.264583"
           id="tspan839-9-6-7-7">VVVVVVVV</tspan></tspan></text>
    <g
       id="g894"
       style="opacity:1">
      <path
         style="color:#000000;font-style:normal;font-variant:normal;font-weight:normal;font-stretch:normal;font-size:medium;line-height:normal;font-family:sans-serif;font-variant-ligatures:normal;font-variant-position:normal;font-variant-caps:normal;font-variant-numeric:normal;font-variant-alternates:normal;font-variant-east-asian:normal;font-feature-settings:normal;font-variation-settings:normal;text-indent:0;text-align:start;text-decoration:none;text-decoration-line:none;text-decoration-style:solid;text-decoration-color:#000000;letter-spacing:normal;word-spacing:normal;text-transform:none;writing-mode:lr-tb;direction:ltr;text-orientation:mixed;dominant-baseline:auto;baseline-shift:baseline;text-anchor:start;white-space:normal;shape-padding:0;shape-margin:0;inline-size:0;clip-rule:nonzero;display:inline;overflow:visible;visibility:visible;isolation:auto;mix-blend-mode:normal;color-interpolation:sRGB;color-interpolation-filters:linearRGB;solid-color:#000000;solid-opacity:1;vector-effect:none;fill:#000000;fill-opacity:1;fill-rule:nonzero;stroke:none;stroke-width:0.600001;stroke-linecap:round;stroke-linejoin:round;stroke-miterlimit:4;stroke-dasharray:none;stroke-dashoffset:0;stroke-opacity:1;paint-order:stroke fill markers;color-rendering:auto;image-rendering:auto;shape-rendering:auto;text-rendering:auto;enable-background:accumulate;stop-color:#000000;stop-opacity:1"
         d="m 289.81055,180.93945 a 0.30003049,0.30003049 0 0 0 -0.13477,0.0274 0.30003049,0.30003049 0 0 0 -0.15234,0.16601 0.30003049,0.30003049 0 0 0 -0.0137,0.043 0.30003049,0.30003049 0 0 0 -0.006,0.0586 v 8.41992 a 0.30003049,0.30003049 0 0 0 0.004,0.0449 0.30003049,0.30003049 0 0 0 0.082,0.16211 0.30003049,0.30003049 0 0 0 0.11719,0.0723 0.30003049,0.30003049 0 0 0 0.0899,0.0156 0.30003049,0.30003049 0 0 0 0.0449,-0.002 0.30003049,0.30003049 0 0 0 0.0449,-0.01 0.30003049,0.30003049 0 0 0 0.11914,-0.0684 0.30003049,0.30003049 0 0 0 0.0332,-0.0332 0.30003049,0.30003049 0 0 0 0.0254,-0.0371 0.30003049,0.30003049 0 0 0 0.0312,-0.0859 0.30003049,0.30003049 0 0 0 0.008,-0.0469 0.30003049,0.30003049 0 0 0 0,-0.0117 v -8.41992 a 0.30003049,0.30003049 0 0 0 -0.004,-0.0449 0.30003049,0.30003049 0 0 0 -0.0117,-0.0449 0.30003049,0.30003049 0 0 0 -0.0176,-0.043 0.30003049,0.30003049 0 0 0 -0.0254,-0.0391 0.30003049,0.30003049 0 0 0 -0.0293,-0.0352 0.30003049,0.30003049 0 0 0 -0.0351,-0.0293 0.30003049,0.30003049 0 0 0 -0.0391,-0.0254 0.30003049,0.30003049 0 0 0 -0.041,-0.0176 0.30003049,0.30003049 0 0 0 -0.0898,-0.0156 z"
         id="path906" />
      <g
         id="g896">
        <g
           id="g900"
           style="opacity:1">
          <path
             style="color:#000000;font-style:normal;font-variant:normal;font-weight:normal;font-stretch:normal;font-size:medium;line-height:normal;font-family:sans-serif;font-variant-ligatures:normal;font-variant-position:normal;font-variant-caps:normal;font-variant-numeric:normal;font-variant-alternates:normal;font-variant-east-asian:normal;font-feature-settings:normal;font-variation-settings:normal;text-indent:0;text-align:start;text-decoration:none;text-decoration-line:none;text-decoration-style:solid;text-decoration-color:#000000;letter-spacing:normal;word-spacing:normal;text-transform:none;writing-mode:lr-tb;direction:ltr;text-orientation:mixed;dominant-baseline:auto;baseline-shift:baseline;text-anchor:start;white-space:normal;shape-padding:0;shape-margin:0;inline-size:0;clip-rule:nonzero;display:inline;overflow:visible;visibility:visible;isolation:auto;mix-blend-mode:normal;color-interpolation:sRGB;color-interpolation-filters:linearRGB;solid-color:#000000;solid-opacity:1;vector-effect:none;fill:#000000;fill-opacity:1;fill-rule:evenodd;stroke:none;stroke-width:0.24pt;stroke-linecap:butt;stroke-linejoin:miter;stroke-miterlimit:4;stroke-dasharray:none;stroke-dashoffset:0;stroke-opacity:1;color-rendering:auto;image-rendering:auto;shape-rendering:auto;text-rendering:auto;enable-background:accumulate;stop-color:#000000;stop-opacity:1"
             d="m 289.80314,183.63465 1.2,1.20001 -1.2,-4.20001 -1.2,4.20001 z"
             id="path902" />
          <path
             style="color:#000000;font-style:normal;font-variant:normal;font-weight:normal;font-stretch:normal;font-size:medium;line-height:normal;font-family:sans-serif;font-variant-ligatures:normal;font-variant-position:normal;font-variant-caps:normal;font-variant-numeric:normal;font-variant-alternates:normal;font-variant-east-asian:normal;font-feature-settings:normal;font-variation-settings:normal;text-indent:0;text-align:start;text-decoration:none;text-decoration-line:none;text-decoration-style:solid;text-decoration-color:#000000;letter-spacing:normal;word-spacing:normal;text-transform:none;writing-mode:lr-tb;direction:ltr;text-orientation:mixed;dominant-baseline:auto;baseline-shift:baseline;text-anchor:start;white-space:normal;shape-padding:0;shape-margin:0;inline-size:0;clip-rule:nonzero;display:inline;overflow:visible;visibility:visible;isolation:auto;mix-blend-mode:normal;color-interpolation:sRGB;color-interpolation-filters:linearRGB;solid-color:#000000;solid-opacity:1;vector-effect:none;fill:#000000;fill-opacity:1;fill-rule:evenodd;stroke:none;stroke-width:0.24pt;stroke-linecap:butt;stroke-linejoin:miter;stroke-miterlimit:4;stroke-dasharray:none;stroke-dashoffset:0;stroke-opacity:1;color-rendering:auto;image-rendering:auto;shape-rendering:auto;text-rendering:auto;enable-background:accumulate;stop-color:#000000;stop-opacity:1"
             d="m 289.80273,180.05273 -1.52343,5.33204 1.52343,-1.52344 1.52344,1.52344 z m 0,1.16602 0.87696,3.06445 -0.87696,-0.875 -0.11328,0.11328 -0.76172,0.76172 z"
             id="path904" />
        </g>
      </g>
    </g>
    <rect
       style="fill:none;fill-opacity:1;stroke:#000000;stroke-width:0.600001;stroke-linecap:round;stroke-linejoin:round;stroke-miterlimit:4;stroke-dasharray:none;stroke-dashoffset:0;stroke-opacity:1;paint-order:stroke fill markers;stop-color:#000000"
       id="rect2270-3-1-4-2"
       width="5.9065108"
       height="10.95805"
       x="287.05035"
       y="167.8096" />
  </g>
</svg>

<?xml version="1.0" encoding="UTF-8" standalone="no"?>
<svg
   xmlns:dc="http://purl.org/dc/elements/1.1/"
   xmlns:cc="http://creativecommons.org/ns#"
   xmlns:rdf="http://www.w3.org/1999/02/22-rdf-syntax-ns#"
   xmlns:svg="http://www.w3.org/2000/svg"
   xmlns="http://www.w3.org/2000/svg"
   xmlns:sodipodi="http://sodipodi.sourceforge.net/DTD/sodipodi-0.dtd"
   xmlns:inkscape="http://www.inkscape.org/namespaces/inkscape"
   width="127.38717mm"
   height="22.959566mm"
   viewBox="0 0 127.38717 22.959567"
   version="1.1"
   id="svg8"
   inkscape:version="1.0 (4035a4fb49, 2020-05-01)"
   sodipodi:docname="bbin_5.svg">
  <defs
     id="defs2">
    <marker
       inkscape:isstock="true"
       style="overflow:visible"
       id="Arrow1Mend-1-8"
       refX="0"
       refY="0"
       orient="-90"
       inkscape:stockid="Arrow1Mend">
      <path
         transform="matrix(-0.4,0,0,-0.4,-4,0)"
         style="fill:#000000;fill-opacity:1;fill-rule:evenodd;stroke:#000000;stroke-width:1pt;stroke-opacity:1"
         d="M 0,0 5,-5 -12.5,0 5,5 Z"
         id="path862-1-0" />
    </marker>
    <marker
       inkscape:stockid="Arrow1Mend"
       orient="auto"
       refY="0"
       refX="0"
       id="Arrow1Mend-1-8-2"
       style="overflow:visible"
       inkscape:isstock="true">
      <path
         id="path862-1-0-5"
         d="M 0,0 5,-5 -12.5,0 5,5 Z"
         style="fill:#000000;fill-opacity:1;fill-rule:evenodd;stroke:#000000;stroke-width:1pt;stroke-opacity:1"
         transform="matrix(-0.4,0,0,-0.4,-4,0)" />
    </marker>
    <marker
       inkscape:isstock="true"
       style="overflow:visible"
       id="Arrow1Mend-1-8-2-1"
       refX="0"
       refY="0"
       orient="auto"
       inkscape:stockid="Arrow1Mend">
      <path
         transform="matrix(-0.4,0,0,-0.4,-4,0)"
         style="fill:#000000;fill-opacity:1;fill-rule:evenodd;stroke:#000000;stroke-width:1pt;stroke-opacity:1"
         d="M 0,0 5,-5 -12.5,0 5,5 Z"
         id="path862-1-0-5-7" />
    </marker>
    <marker
       inkscape:stockid="Arrow1Mend"
       orient="auto"
       refY="0"
       refX="0"
       id="Arrow1Mend-1-8-2-1-9"
       style="overflow:visible"
       inkscape:isstock="true">
      <path
         id="path862-1-0-5-7-1"
         d="M 0,0 5,-5 -12.5,0 5,5 Z"
         style="fill:#000000;fill-opacity:1;fill-rule:evenodd;stroke:#000000;stroke-width:1pt;stroke-opacity:1"
         transform="matrix(-0.4,0,0,-0.4,-4,0)" />
    </marker>
    <marker
       inkscape:isstock="true"
       style="overflow:visible"
       id="Arrow1Mend-1-8-2-1-9-6"
       refX="0"
       refY="0"
       orient="auto"
       inkscape:stockid="Arrow1Mend">
      <path
         transform="matrix(-0.4,0,0,-0.4,-4,0)"
         style="fill:#000000;fill-opacity:1;fill-rule:evenodd;stroke:#000000;stroke-width:1pt;stroke-opacity:1"
         d="M 0,0 5,-5 -12.5,0 5,5 Z"
         id="path862-1-0-5-7-1-8" />
    </marker>
  </defs>
  <sodipodi:namedview
     id="base"
     pagecolor="#ffffff"
     bordercolor="#666666"
     borderopacity="1.0"
     inkscape:pageopacity="0.0"
     inkscape:pageshadow="2"
     inkscape:zoom="1.4"
     inkscape:cx="265.87123"
     inkscape:cy="139.97661"
     inkscape:document-units="mm"
     inkscape:current-layer="layer1"
     inkscape:document-rotation="0"
     showgrid="false"
     inkscape:window-width="1375"
     inkscape:window-height="1040"
     inkscape:window-x="2142"
     inkscape:window-y="0"
     inkscape:window-maximized="0" />
  <metadata
     id="metadata5">
    <rdf:RDF>
      <cc:Work
         rdf:about="">
        <dc:format>image/svg+xml</dc:format>
        <dc:type
           rdf:resource="http://purl.org/dc/dcmitype/StillImage" />
        <dc:title />
      </cc:Work>
    </rdf:RDF>
  </metadata>
  <g
     inkscape:label="Layer 1"
     inkscape:groupmode="layer"
     id="layer1"
     transform="translate(-204.13814,-166.98987)">
    <text
       id="text835-7-7-4-7"
       y="176.38867"
       x="203.84358"
       style="font-style:normal;font-variant:normal;font-weight:normal;font-stretch:normal;font-size:10.5833px;line-height:1.25;font-family:'CMU Typewriter Text';-inkscape-font-specification:'CMU Typewriter Text';stroke-width:0.264583"
       xml:space="preserve"><tspan
         id="tspan1827-5-3-9-5"
         style="font-style:normal;font-variant:normal;font-weight:normal;font-stretch:normal;font-family:'CMU Typewriter Text';-inkscape-font-specification:'CMU Typewriter Text';stroke-width:0.264583"
         y="176.38867"
         x="203.84358"
         sodipodi:role="line"><tspan
           id="tspan837-6-5-5-9"
           style="fill:#ff0000;stroke-width:0.264583">FFFFFFFFFFFFFFF</tspan><tspan
           id="tspan839-9-6-7-7"
           style="fill:#008000;stroke-width:0.264583">VVVVVVVV</tspan></tspan></text>
    <g
       style="opacity:1"
       id="g894">
      <path
         id="path906"
         d="M 289.81055 180.93945 A 0.30003049 0.30003049 0 0 0 289.67578 180.9668 A 0.30003049 0.30003049 0 0 0 289.52344 181.13281 A 0.30003049 0.30003049 0 0 0 289.50977 181.17578 A 0.30003049 0.30003049 0 0 0 289.50391 181.23438 L 289.50391 189.6543 A 0.30003049 0.30003049 0 0 0 289.50781 189.69922 A 0.30003049 0.30003049 0 0 0 289.58984 189.86133 A 0.30003049 0.30003049 0 0 0 289.70703 189.93359 A 0.30003049 0.30003049 0 0 0 289.79688 189.94922 A 0.30003049 0.30003049 0 0 0 289.8418 189.94727 A 0.30003049 0.30003049 0 0 0 289.88672 189.9375 A 0.30003049 0.30003049 0 0 0 290.00586 189.86914 A 0.30003049 0.30003049 0 0 0 290.03906 189.83594 A 0.30003049 0.30003049 0 0 0 290.06445 189.79883 A 0.30003049 0.30003049 0 0 0 290.0957 189.71289 A 0.30003049 0.30003049 0 0 0 290.10352 189.66602 A 0.30003049 0.30003049 0 0 0 290.10352 189.6543 L 290.10352 181.23438 A 0.30003049 0.30003049 0 0 0 290.09961 181.18945 A 0.30003049 0.30003049 0 0 0 290.08789 181.14453 A 0.30003049 0.30003049 0 0 0 290.07031 181.10156 A 0.30003049 0.30003049 0 0 0 290.04492 181.0625 A 0.30003049 0.30003049 0 0 0 290.01562 181.02734 A 0.30003049 0.30003049 0 0 0 289.98047 180.99805 A 0.30003049 0.30003049 0 0 0 289.94141 180.97266 A 0.30003049 0.30003049 0 0 0 289.90039 180.95508 A 0.30003049 0.30003049 0 0 0 289.81055 180.93945 z "
         style="color:#000000;font-style:normal;font-variant:normal;font-weight:normal;font-stretch:normal;font-size:medium;line-height:normal;font-family:sans-serif;font-variant-ligatures:normal;font-variant-position:normal;font-variant-caps:normal;font-variant-numeric:normal;font-variant-alternates:normal;font-variant-east-asian:normal;font-feature-settings:normal;font-variation-settings:normal;text-indent:0;text-align:start;text-decoration:none;text-decoration-line:none;text-decoration-style:solid;text-decoration-color:#000000;letter-spacing:normal;word-spacing:normal;text-transform:none;writing-mode:lr-tb;direction:ltr;text-orientation:mixed;dominant-baseline:auto;baseline-shift:baseline;text-anchor:start;white-space:normal;shape-padding:0;shape-margin:0;inline-size:0;clip-rule:nonzero;display:inline;overflow:visible;visibility:visible;isolation:auto;mix-blend-mode:normal;color-interpolation:sRGB;color-interpolation-filters:linearRGB;solid-color:#000000;solid-opacity:1;vector-effect:none;fill:#000000;fill-opacity:1;fill-rule:nonzero;stroke:none;stroke-width:0.600001;stroke-linecap:round;stroke-linejoin:round;stroke-miterlimit:4;stroke-dasharray:none;stroke-dashoffset:0;stroke-opacity:1.0;paint-order:stroke fill markers;color-rendering:auto;image-rendering:auto;shape-rendering:auto;text-rendering:auto;enable-background:accumulate;stop-color:#000000;stop-opacity:1;" />
      <g
         id="g896">
        <g
           style="opacity:1"
           id="g900">
          <path
             id="path902"
             d="m 289.80314,183.63465 1.2,1.20001 -1.2,-4.20001 -1.2,4.20001 z"
             style="color:#000000;font-style:normal;font-variant:normal;font-weight:normal;font-stretch:normal;font-size:medium;line-height:normal;font-family:sans-serif;font-variant-ligatures:normal;font-variant-position:normal;font-variant-caps:normal;font-variant-numeric:normal;font-variant-alternates:normal;font-variant-east-asian:normal;font-feature-settings:normal;font-variation-settings:normal;text-indent:0;text-align:start;text-decoration:none;text-decoration-line:none;text-decoration-style:solid;text-decoration-color:#000000;letter-spacing:normal;word-spacing:normal;text-transform:none;writing-mode:lr-tb;direction:ltr;text-orientation:mixed;dominant-baseline:auto;baseline-shift:baseline;text-anchor:start;white-space:normal;shape-padding:0;shape-margin:0;inline-size:0;clip-rule:nonzero;display:inline;overflow:visible;visibility:visible;isolation:auto;mix-blend-mode:normal;color-interpolation:sRGB;color-interpolation-filters:linearRGB;solid-color:#000000;solid-opacity:1;vector-effect:none;fill:#000000;fill-opacity:1;fill-rule:evenodd;stroke:none;stroke-width:0.24pt;stroke-linecap:butt;stroke-linejoin:miter;stroke-miterlimit:4;stroke-dasharray:none;stroke-dashoffset:0;stroke-opacity:1.0;color-rendering:auto;image-rendering:auto;shape-rendering:auto;text-rendering:auto;enable-background:accumulate;stop-color:#000000;stop-opacity:1;" />
          <path
             id="path904"
             d="M 289.80273 180.05273 L 288.2793 185.38477 L 289.80273 183.86133 L 291.32617 185.38477 L 289.80273 180.05273 z M 289.80273 181.21875 L 290.67969 184.2832 L 289.80273 183.4082 L 289.68945 183.52148 L 288.92773 184.2832 L 289.80273 181.21875 z "
             style="color:#000000;font-style:normal;font-variant:normal;font-weight:normal;font-stretch:normal;font-size:medium;line-height:normal;font-family:sans-serif;font-variant-ligatures:normal;font-variant-position:normal;font-variant-caps:normal;font-variant-numeric:normal;font-variant-alternates:normal;font-variant-east-asian:normal;font-feature-settings:normal;font-variation-settings:normal;text-indent:0;text-align:start;text-decoration:none;text-decoration-line:none;text-decoration-style:solid;text-decoration-color:#000000;letter-spacing:normal;word-spacing:normal;text-transform:none;writing-mode:lr-tb;direction:ltr;text-orientation:mixed;dominant-baseline:auto;baseline-shift:baseline;text-anchor:start;white-space:normal;shape-padding:0;shape-margin:0;inline-size:0;clip-rule:nonzero;display:inline;overflow:visible;visibility:visible;isolation:auto;mix-blend-mode:normal;color-interpolation:sRGB;color-interpolation-filters:linearRGB;solid-color:#000000;solid-opacity:1;vector-effect:none;fill:#000000;fill-opacity:1;fill-rule:evenodd;stroke:none;stroke-width:0.24pt;stroke-linecap:butt;stroke-linejoin:miter;stroke-miterlimit:4;stroke-dasharray:none;stroke-dashoffset:0;stroke-opacity:1.0;color-rendering:auto;image-rendering:auto;shape-rendering:auto;text-rendering:auto;enable-background:accumulate;stop-color:#000000;stop-opacity:1;" />
        </g>
      </g>
    </g>
    <rect
       y="167.28987"
       x="287.05035"
       height="10.95805"
       width="5.9065108"
       id="rect2270-3-1-4-2"
       style="fill:none;fill-opacity:1;stroke:#000000;stroke-width:0.600001;stroke-linecap:round;stroke-linejoin:round;stroke-miterlimit:4;stroke-dasharray:none;stroke-dashoffset:0;stroke-opacity:1;paint-order:stroke fill markers;stop-color:#000000" />
  </g>
</svg>
